X:1
T: The New Ashludie Rant
P: The New Ashludie Rant
C: By Angus Fitchet
C: arr. T. Traub 8-23-2015
R: Jig
M: 6/8
K: F
L: 1/8
|: C|"F"F2 A cde|"Bb"fed "F"c2 B|"F"A2 c cdc|"Gm"BAB "C"G2 C|"F"F2 A cde|"Bb"fed "C"c2 B|"F"AcA "C"BGE|"F"F3 F2 :|
B|"F"A2 F FAB|"F"cde f2 c|"Gm"B2 G Ggf|"C"ecc c2 B|"F"A2 F FAB|"F"cde f2 c|"Bb"dgf "C"ede|"F"f3 f2 c||
"F"A2 F FAB|"F"cde fcA|"Gm"BGG "G7"Ggf|"C"ecc c2 c|"F"faf "C"gec|"Bb"dfd "F"cAF|"F"AcA "C7"BGE|"F"F3 F2 |]
